X:1
T: Trees - Field Town
T: Shepherds' Hey
M: 6/8
L: 1/8
R: Rag Morris
C:Trad
K: G
Z: ABC by Mackin & Michael Greene
r: 32
W: Music formula for morris dance: A.(AB)3A.
[P:A]
B2 c |: d2 c B2 c|d3 e2 f | g2 a g2 f | e3 B2 c | d2 c B2 c | 
d3 e3 f | g2 a g2 f| [1357 He3 B2 c :|][246 He3 "To B" d3|][8He6|]
P:B
|: c3 c3 | B2 A G2 B| d2 c Bcd| c2 B ABc | 
B2 A G3 | A2 B c2 d | e2 f g2 f |[1 He3 d3 :|][2 He3 B2 c|]
